svg/vault.svg

<svg xmlns="http://www.w3.org/2000/svg" xml:space="preserve" id="Layer_1" x="0" y="0" style="enable-background:new 0 0 512 512" version="1.1" viewBox="0 0 512 512"><style>.st1{fill:#005766}.st2{fill:#00d8fe}.st3{fill:#008da6}</style><path d="M0 14.5h512l-256 483L0 14.5"/><path d="M318 142.9c0 8-6.5 14.5-14.5 14.5s-14.5-6.5-14.5-14.5 6.5-14.5 14.5-14.5 14.5 6.5 14.5 14.5" style="fill:#00adcc"/><path d="M318 182.7c0 8-6.5 14.5-14.5 14.5s-14.5-6.5-14.5-14.5 6.5-14.5 14.5-14.5 14.5 6.5 14.5 14.5" class="st1"/><path d="M318 222.2c0 8-6.5 14.5-14.5 14.5s-14.5-6.5-14.5-14.5 6.5-14.5 14.5-14.5c8 .1 14.5 6.5 14.5 14.5" class="st2"/><path d="M231.1 222.2c0 8-6.5 14.5-14.5 14.5s-14.5-6.5-14.5-14.5 6.5-14.5 14.5-14.5c8 .1 14.5 6.5 14.5 14.5" class="st3"/><path d="M231.1 182.7c0 8-6.5 14.5-14.5 14.5s-14.5-6.5-14.5-14.5 6.5-14.5 14.5-14.5 14.5 6.5 14.5 14.5m0-39.8c0 8-6.5 14.5-14.5 14.5s-14.5-6.5-14.5-14.5 6.5-14.5 14.5-14.5 14.5 6.5 14.5 14.5" class="st2"/><path d="M274.5 142.9c0 8-6.5 14.5-14.5 14.5s-14.5-6.5-14.5-14.5 6.5-14.5 14.5-14.5 14.5 6.5 14.5 14.5" class="st1"/><path d="M274.5 182.7c0 8-6.5 14.5-14.5 14.5s-14.5-6.5-14.5-14.5 6.5-14.5 14.5-14.5 14.5 6.5 14.5 14.5" style="fill:#00c3e6"/><path d="M274.5 222.2c0 8-6.5 14.5-14.5 14.5s-14.5-6.5-14.5-14.5 6.5-14.5 14.5-14.5 14.5 6.5 14.5 14.5" class="st3"/><path d="M274.5 262.4c0 8-6.5 14.5-14.5 14.5s-14.5-6.5-14.5-14.5 6.5-14.5 14.5-14.5 14.5 6.5 14.5 14.5" class="st2"/></svg>

<?xml version="1.0" encoding="utf-8"?>
<!-- Generator: Adobe Illustrator 24.1.1, SVG Export Plug-In . SVG Version: 6.00 Build 0)  -->
<svg version="1.1" id="Layer_1" xmlns="http://www.w3.org/2000/svg" xmlns:xlink="http://www.w3.org/1999/xlink" x="0px" y="0px"
	 viewBox="0 0 512 512" style="enable-background:new 0 0 512 512;" xml:space="preserve">
<style type="text/css">
	.st0{fill:#00ADCC;}
	.st1{fill:#005766;}
	.st2{fill:#00D8FE;}
	.st3{fill:#008DA6;}
	.st4{fill:#00C3E6;}
</style>
<g>
	<polyline points="0,14.5 512,14.5 256,497.5 0,14.5 	"/>
	<path class="st0" d="M318,142.9c0,8-6.5,14.5-14.5,14.5c-8,0-14.5-6.5-14.5-14.5c0-8,6.5-14.5,14.5-14.5
		C311.5,128.4,318,134.9,318,142.9"/>
	<path class="st1" d="M318,182.7c0,8-6.5,14.5-14.5,14.5c-8,0-14.5-6.5-14.5-14.5s6.5-14.5,14.5-14.5
		C311.5,168.2,318,174.7,318,182.7"/>
	<path class="st2" d="M318,222.2c0,8-6.5,14.5-14.5,14.5c-8,0-14.5-6.5-14.5-14.5c0-8,6.5-14.5,14.5-14.5
		C311.5,207.8,318,214.2,318,222.2"/>
	<path class="st3" d="M231.1,222.2c0,8-6.5,14.5-14.5,14.5c-8,0-14.5-6.5-14.5-14.5c0-8,6.5-14.5,14.5-14.5
		C224.6,207.8,231.1,214.2,231.1,222.2"/>
	<path class="st2" d="M231.1,182.7c0,8-6.5,14.5-14.5,14.5c-8,0-14.5-6.5-14.5-14.5s6.5-14.5,14.5-14.5
		C224.6,168.2,231.1,174.7,231.1,182.7"/>
	<path class="st2" d="M231.1,142.9c0,8-6.5,14.5-14.5,14.5c-8,0-14.5-6.5-14.5-14.5c0-8,6.5-14.5,14.5-14.5
		C224.6,128.4,231.1,134.9,231.1,142.9"/>
	<path class="st1" d="M274.5,142.9c0,8-6.5,14.5-14.5,14.5s-14.5-6.5-14.5-14.5c0-8,6.5-14.5,14.5-14.5S274.5,134.9,274.5,142.9"/>
	<path class="st4" d="M274.5,182.7c0,8-6.5,14.5-14.5,14.5s-14.5-6.5-14.5-14.5s6.5-14.5,14.5-14.5S274.5,174.7,274.5,182.7"/>
	<path class="st3" d="M274.5,222.2c0,8-6.5,14.5-14.5,14.5s-14.5-6.5-14.5-14.5c0-8,6.5-14.5,14.5-14.5S274.5,214.2,274.5,222.2"/>
	<path class="st2" d="M274.5,262.4c0,8-6.5,14.5-14.5,14.5s-14.5-6.5-14.5-14.5c0-8,6.5-14.5,14.5-14.5S274.5,254.4,274.5,262.4"/>
</g>
</svg>
